lib/brands/icons/auth0.svg

<svg xmlns="http://www.w3.org/2000/svg" fill="none" aria-hidden="true" viewBox="0 0 48 48"><g id="auth0-Icon"><path id="Vector" fill="#EB5424" d="M33.464 35.1232L29.85 23.9995L39.3103 17.1265H27.6165L24.0023 6.00322L24.0012 6.00021H35.6967L39.3118 17.1254L39.312 17.1252L39.315 17.1235C41.4143 23.5776 39.2521 30.9183 33.464 35.1232ZM14.5397 35.1232L14.5367 35.1253L23.9993 42L33.464 35.1234L24.0023 28.2485L14.5397 35.1232ZM8.69109 17.1237C6.4811 23.9272 9.04648 31.1362 14.5378 35.1245L14.5386 35.121L18.153 23.998L8.69495 17.1263H20.386L24.0004 6.003L24.0012 6H12.3051L8.69109 17.1237Z"/></g></svg>

<svg xmlns="http://www.w3.org/2000/svg" fill="none" aria-hidden="true" viewBox="0 0 48 48"><path fill="#EB5424" d="M33.464 35.123 29.85 24l9.46-6.873H27.616L24.002 6.002V6h11.695l3.615 11.125.003-.002c2.1 6.455-.063 13.795-5.851 18Zm-18.924 0-.003.002L23.999 42l9.465-6.877-9.462-6.874-9.462 6.874Zm-5.849-18c-2.21 6.804.355 14.013 5.847 18.001v-.003l3.615-11.123-9.458-6.872h11.691L24 6.003 24.001 6H12.305L8.691 17.124Z"/></svg>
